static/images/components/slider/icons/community.svg

<svg height="96.713" viewBox="0 0 102.07 96.713" width="102.07" xmlns="http://www.w3.org/2000/svg" xmlns:xlink="http://www.w3.org/1999/xlink"><clipPath id="a"><path d="m0 0h102.069v96.713h-102.069z"/></clipPath><g clip-path="url(#a)" fill="#fff"><path d="m9.975 29.984a1.182 1.182 0 0 1 -.511-.117 1.17 1.17 0 0 1 -.543-1.567l9.613-19.844c1.583-3.273.4-4.863-.625-5.772l-.575-.327c-.348-.064-.735 0-1.157.781l-10.298 18.994a1.171 1.171 0 1 1 -2.059-1.114l10.3-19a3.323 3.323 0 0 1 3.917-1.908l.323.135.93.555c1.871 1.633 3.457 4.334 1.352 8.672l-9.612 19.848a1.167 1.167 0 0 1 -1.054.664" transform="translate(9.377 .002)"/><path d="m8.992 26.277a1.171 1.171 0 0 1 -1.044-1.7l8.562-16.691a3.051 3.051 0 0 0 -.689-3.686l-.848-.753a1.629 1.629 0 0 0 -1.289-.4 1.6 1.6 0 0 0 -1.143.7l-2.172 3.16a1.172 1.172 0 0 1 -1.935-1.324l2.172-3.166a3.986 3.986 0 0 1 5.917-.728l.848.756a5.4 5.4 0 0 1 1.229 6.51l-8.565 16.683a1.172 1.172 0 0 1 -1.044.639" transform="translate(19.938 1.767)"/><path d="m12.474 23.79a1.187 1.187 0 0 1 -.575-.149 1.167 1.167 0 0 1 -.447-1.594l7.648-13.681a3.061 3.061 0 0 0 -.845-3.954 1.711 1.711 0 0 0 -1.455-.358 1.678 1.678 0 0 0 -1.122.852l-4.123 7.674a1.171 1.171 0 1 1 -2.062-1.111l4.121-7.674a4.038 4.038 0 0 1 2.669-2.027 4 4 0 0 1 3.283.7 5.435 5.435 0 0 1 1.583 7.046l-7.656 13.676a1.169 1.169 0 0 1 -1.019.6" transform="translate(23.842 4.255)"/><path d="m17.131 21.442a1.228 1.228 0 0 1 -.508-.114 1.177 1.177 0 0 1 -.55-1.565l4.527-9.488a2.653 2.653 0 0 0 -.834-3.287 1.972 1.972 0 0 0 -1.647-.426 1.844 1.844 0 0 0 -1.235.912l-4.625 8.267a1.172 1.172 0 1 1 -2.045-1.147l4.622-8.264a4.23 4.23 0 0 1 2.786-2.062 4.275 4.275 0 0 1 3.383.717 5.059 5.059 0 0 1 1.707 6.3l-4.526 9.488a1.174 1.174 0 0 1 -1.058.664" transform="translate(25.667 10.652)"/><path d="m3.876 79.142a1.2 1.2 0 0 1 -.362-.057 1.176 1.176 0 0 1 -.753-1.477l3.266-10.138c0-.007 1.4-5.2-.816-9.339-.174-.277-5.211-8.395-5.211-14.074v-11.21a15.981 15.981 0 0 1 .532-4.047 28.634 28.634 0 0 0 .87-4.16l.54-12.3a7.154 7.154 0 0 1 2.275-4.723 4.484 4.484 0 0 1 3.617-.817c-.007-.021 5.928.146 5.928 11.022l.348 14.035a3.5 3.5 0 0 0 .774 2.126c2.847 3.543 7.759 10.045 8.633 13.783l.032 5.239a1.171 1.171 0 1 1 -2.343 0v-4.969c-.525-2.1-3.582-6.9-8.146-12.58a5.785 5.785 0 0 1 -1.292-3.539l-.349-14.067c0-8.388-3.67-8.711-3.826-8.721a2.388 2.388 0 0 0 -1.935.334 4.883 4.883 0 0 0 -1.377 3.027l-.54 12.3a30.47 30.47 0 0 1 -.941 4.61 13.544 13.544 0 0 0 -.454 3.447v11.21c0 5 4.849 12.821 4.895 12.9 2.705 5.043 1.104 10.943 1.03 11.188l-3.28 10.184a1.166 1.166 0 0 1 -1.115.813" transform="translate(0 17.133)"/><path d="m10.012 41.927h-.053a1.176 1.176 0 0 1 -1.118-1.227l.217-4.92a9.536 9.536 0 0 1 1.313-4.394l5.523-9.325a1.173 1.173 0 0 1 2.02 1.193l-5.527 9.326a7.071 7.071 0 0 0 -.983 3.308l-.22 4.92a1.174 1.174 0 0 1 -1.171 1.118" transform="translate(22.538 54.785)"/><path d="m31.689 29.986a1.167 1.167 0 0 1 -1.054-.664l-9.616-19.845c-2.101-4.335-.519-7.039 1.181-8.544l1.427-.82a3.3 3.3 0 0 1 3.915 1.91l10.3 19a1.171 1.171 0 1 1 -2.059 1.115l-10.3-19c-.408-.76-.784-.834-1.139-.781l-.763.458c-.852.784-2.037 2.371-.454 5.644l9.616 19.841a1.17 1.17 0 0 1 -.543 1.565 1.182 1.182 0 0 1 -.511.117" transform="translate(51.028)"/><path d="m27.932 26.278a1.172 1.172 0 0 1 -1.044-.639l-8.565-16.683a5.406 5.406 0 0 1 1.228-6.51l.848-.753a3.973 3.973 0 0 1 5.917.728l2.169 3.163a1.172 1.172 0 0 1 -1.935 1.324l-2.167-3.163a1.6 1.6 0 0 0 -1.147-.7 1.585 1.585 0 0 0 -1.285.4l-.851.755a3.058 3.058 0 0 0 -.692 3.688l8.565 16.687a1.171 1.171 0 0 1 -1.044 1.7" transform="translate(45.204 1.766)"/><path d="m25.249 23.786a1.171 1.171 0 0 1 -1.022-.6l-7.654-13.677a5.414 5.414 0 0 1 1.5-6.986 4.129 4.129 0 0 1 3.369-.76 4.038 4.038 0 0 1 2.669 2.027l4.121 7.674a1.173 1.173 0 1 1 -2.066 1.111l-4.123-7.675a1.685 1.685 0 0 0 -2.492-.561 3.094 3.094 0 0 0 -.934 4.022l7.653 13.68a1.171 1.171 0 0 1 -.451 1.594 1.184 1.184 0 0 1 -.571.149" transform="translate(40.501 4.259)"/><path d="m21.056 21.446a1.171 1.171 0 0 1 -1.056-.668l-4.524-9.488a5 5 0 0 1 1.562-6.19 4.29 4.29 0 0 1 3.532-.824 4.22 4.22 0 0 1 2.779 2.059l4.625 8.265a1.172 1.172 0 1 1 -2.045 1.147l-4.629-8.269a1.867 1.867 0 0 0 -2.73-.6 2.713 2.713 0 0 0 -.983 3.4l4.526 9.492a1.172 1.172 0 0 1 -.554 1.562 1.2 1.2 0 0 1 -.5.114" transform="translate(38.212 10.649)"/><path d="m41.793 79.147a1.166 1.166 0 0 1 -1.115-.813l-3.269-10.134c-.085-.295-1.686-6.187.983-11.167.085-.146 4.934-7.962 4.934-12.967v-11.213a13.591 13.591 0 0 0 -.454-3.45 30.757 30.757 0 0 1 -.944-4.568l-.543-12.388a4.845 4.845 0 0 0 -1.377-2.978 2.216 2.216 0 0 0 -1.782-.351c-.309.028-3.976.351-3.976 8.714l-.35 14.087a5.819 5.819 0 0 1 -1.292 3.543c-4.568 5.672-7.621 10.475-8.178 12.846l.032 4.707a1.171 1.171 0 1 1 -2.343 0v-4.973c.905-4.018 5.818-10.51 8.665-14.049a3.516 3.516 0 0 0 .774-2.13l.348-14.06c0-10.787 5.853-11.007 6.105-11.011a4.323 4.323 0 0 1 3.436.831 7.142 7.142 0 0 1 2.277 4.677l.543 12.392a28.5 28.5 0 0 0 .87 4.114 16.029 16.029 0 0 1 .532 4.05v11.21c0 5.679-5.037 13.8-5.25 14.142-2.179 4.068-.781 9.265-.767 9.318l3.255 10.092a1.176 1.176 0 0 1 -.753 1.477 1.2 1.2 0 0 1 -.362.057" transform="translate(56.4 17.128)"/><path d="m25.373 41.927a1.174 1.174 0 0 1 -1.173-1.119l-.22-4.923a7.073 7.073 0 0 0 -.98-3.3l-5.527-9.325a1.173 1.173 0 0 1 2.02-1.193l5.523 9.325a9.536 9.536 0 0 1 1.31 4.394l.217 4.92a1.176 1.176 0 0 1 -1.118 1.225z" transform="translate(44.143 54.785)"/><path d="m31.334 52.27a2.5 2.5 0 0 1 -1.651-.635c-2.545-2.272-11.224-10.235-16.832-17.961a30.7 30.7 0 0 1 -4.515-8.274 19.706 19.706 0 0 1 -.554-3.56c0-6.5 5.548-11.8 12.367-11.8a12.468 12.468 0 0 1 11.2 6.815 12.466 12.466 0 0 1 11.2-6.815c6.819 0 12.363 5.292 12.363 11.8a20.235 20.235 0 0 1 -.529 3.482c-2.84 9.222-17.059 22.462-21.351 26.3a2.587 2.587 0 0 1 -1.69.65m-11.193-39.885c-5.53 0-10.024 4.238-10.024 9.453a17.487 17.487 0 0 0 .472 2.943 28.517 28.517 0 0 0 4.156 7.517c5.466 7.536 13.989 15.356 16.47 17.571 3.21-2.655 18.177-16.371 20.89-25.16a18.079 18.079 0 0 0 .447-2.872c0-5.214-4.5-9.453-10.021-9.453a10.045 10.045 0 0 0 -9.449 6.325 9.133 9.133 0 0 0 -.579 3.127 1.171 1.171 0 1 1 -2.343 0 9.128 9.128 0 0 0 -.575-3.134 10.045 10.045 0 0 0 -9.446-6.318" transform="translate(19.841 25.607)"/></g></svg>

<svg xmlns="http://www.w3.org/2000/svg"
    xmlns:xlink="http://www.w3.org/1999/xlink" width="102.07" height="96.713" viewBox="0 0 102.07 96.713">
    <defs>
        <clipPath id="clip-path">
            <rect id="Rectangle_1081" data-name="Rectangle 1081" width="102.069" height="96.713" fill="#fff"></rect>
        </clipPath>
    </defs>
    <g id="Group_1816" data-name="Group 1816" transform="translate(0 0)">
        <g id="Group_1815" data-name="Group 1815" transform="translate(0 0)" clip-path="url(#clip-path)">
            <path id="Path_4201" data-name="Path 4201" d="M9.975,29.984a1.182,1.182,0,0,1-.511-.117A1.17,1.17,0,0,1,8.921,28.3L18.534,8.456c1.583-3.273.4-4.863-.625-5.772l-.575-.327c-.348-.064-.735,0-1.157.781L5.879,22.132A1.171,1.171,0,1,1,3.82,21.018l10.3-19A3.323,3.323,0,0,1,18.037.11l.323.135L19.29.8c1.871,1.633,3.457,4.334,1.352,8.672L11.03,29.32a1.167,1.167,0,0,1-1.054.664" transform="translate(9.377 0.002)" fill="#fff"></path>
            <path id="Path_4202" data-name="Path 4202" d="M8.992,26.277a1.171,1.171,0,0,1-1.044-1.7L16.51,7.886A3.051,3.051,0,0,0,15.821,4.2l-.848-.753a1.629,1.629,0,0,0-1.289-.4,1.6,1.6,0,0,0-1.143.7L10.369,6.907A1.172,1.172,0,0,1,8.434,5.583l2.172-3.166a3.986,3.986,0,0,1,5.917-.728l.848.756A5.4,5.4,0,0,1,18.6,8.955L10.035,25.638a1.172,1.172,0,0,1-1.044.639" transform="translate(19.938 1.767)" fill="#fff"></path>
            <path id="Path_4203" data-name="Path 4203" d="M12.474,23.79a1.187,1.187,0,0,1-.575-.149,1.167,1.167,0,0,1-.447-1.594L19.1,8.366a3.061,3.061,0,0,0-.845-3.954A1.711,1.711,0,0,0,16.8,4.054a1.678,1.678,0,0,0-1.122.852L11.555,12.58a1.171,1.171,0,1,1-2.062-1.111l4.121-7.674a4.038,4.038,0,0,1,2.669-2.027,4,4,0,0,1,3.283.7,5.435,5.435,0,0,1,1.583,7.046L13.493,23.19a1.169,1.169,0,0,1-1.019.6" transform="translate(23.842 4.255)" fill="#fff"></path>
            <path id="Path_4204" data-name="Path 4204" d="M17.131,21.442a1.228,1.228,0,0,1-.508-.114,1.177,1.177,0,0,1-.55-1.565L20.6,10.275a2.653,2.653,0,0,0-.834-3.287,1.972,1.972,0,0,0-1.647-.426,1.844,1.844,0,0,0-1.235.912l-4.625,8.267a1.172,1.172,0,1,1-2.045-1.147l4.622-8.264a4.23,4.23,0,0,1,2.786-2.062,4.275,4.275,0,0,1,3.383.717,5.059,5.059,0,0,1,1.707,6.3l-4.526,9.488a1.174,1.174,0,0,1-1.058.664" transform="translate(25.667 10.652)" fill="#fff"></path>
            <path id="Path_4205" data-name="Path 4205" d="M3.876,79.142a1.2,1.2,0,0,1-.362-.057,1.176,1.176,0,0,1-.753-1.477L6.027,67.47c0-.007,1.4-5.2-.816-9.339C5.037,57.854,0,49.736,0,44.057V32.847A15.981,15.981,0,0,1,.532,28.8a28.634,28.634,0,0,0,.87-4.16l.54-12.3A7.154,7.154,0,0,1,4.217,7.617,4.484,4.484,0,0,1,7.834,6.8c-.007-.021,5.928.146,5.928,11.022l.348,14.035a3.5,3.5,0,0,0,.774,2.126c2.847,3.543,7.759,10.045,8.633,13.783l.032,5.239a1.171,1.171,0,1,1-2.343,0V48.036c-.525-2.1-3.582-6.9-8.146-12.58a5.785,5.785,0,0,1-1.292-3.539L11.419,17.85c0-8.388-3.67-8.711-3.826-8.721a2.388,2.388,0,0,0-1.935.334A4.883,4.883,0,0,0,4.281,12.49l-.54,12.3A30.47,30.47,0,0,1,2.8,29.4a13.544,13.544,0,0,0-.454,3.447v11.21c0,5,4.849,12.821,4.895,12.9C9.946,62,8.345,67.9,8.271,68.145L4.991,78.329a1.166,1.166,0,0,1-1.115.813" transform="translate(0 17.133)" fill="#fff"></path>
            <path id="Path_4206" data-name="Path 4206" d="M10.012,41.927H9.959A1.176,1.176,0,0,1,8.841,40.7l.217-4.92a9.536,9.536,0,0,1,1.313-4.394l5.523-9.325a1.173,1.173,0,0,1,2.02,1.193L12.387,32.58a7.071,7.071,0,0,0-.983,3.308l-.22,4.92a1.174,1.174,0,0,1-1.171,1.118" transform="translate(22.538 54.785)" fill="#fff"></path>
            <path id="Path_4207" data-name="Path 4207" d="M31.689,29.986a1.167,1.167,0,0,1-1.054-.664L21.019,9.477C18.918,5.142,20.5,2.438,22.2.933l1.427-.82a3.3,3.3,0,0,1,3.915,1.91l10.3,19a1.171,1.171,0,1,1-2.059,1.115l-10.3-19c-.408-.76-.784-.834-1.139-.781l-.763.458c-.852.784-2.037,2.371-.454,5.644L32.743,28.3a1.17,1.17,0,0,1-.543,1.565,1.182,1.182,0,0,1-.511.117" transform="translate(51.028 0)" fill="#fff"></path>
            <path id="Path_4208" data-name="Path 4208" d="M27.932,26.278a1.172,1.172,0,0,1-1.044-.639L18.323,8.956a5.406,5.406,0,0,1,1.228-6.51l.848-.753a3.973,3.973,0,0,1,5.917.728l2.169,3.163a1.172,1.172,0,0,1-1.935,1.324L24.383,3.745a1.6,1.6,0,0,0-1.147-.7,1.585,1.585,0,0,0-1.285.4L21.1,4.2a3.058,3.058,0,0,0-.692,3.688l8.565,16.687a1.171,1.171,0,0,1-1.044,1.7" transform="translate(45.204 1.766)" fill="#fff"></path>
            <path id="Path_4209" data-name="Path 4209" d="M25.249,23.786a1.171,1.171,0,0,1-1.022-.6L16.573,9.509a5.414,5.414,0,0,1,1.5-6.986,4.129,4.129,0,0,1,3.369-.76,4.038,4.038,0,0,1,2.669,2.027l4.121,7.674a1.173,1.173,0,1,1-2.066,1.111L22.043,4.9a1.685,1.685,0,0,0-2.492-.561,3.094,3.094,0,0,0-.934,4.022l7.653,13.68a1.171,1.171,0,0,1-.451,1.594,1.184,1.184,0,0,1-.571.149" transform="translate(40.501 4.259)" fill="#fff"></path>
            <path id="Path_4210" data-name="Path 4210" d="M21.056,21.446A1.171,1.171,0,0,1,20,20.778L15.476,11.29A5,5,0,0,1,17.038,5.1a4.29,4.29,0,0,1,3.532-.824,4.22,4.22,0,0,1,2.779,2.059L27.974,14.6a1.172,1.172,0,1,1-2.045,1.147L21.3,7.478a1.867,1.867,0,0,0-2.73-.6,2.713,2.713,0,0,0-.983,3.4l4.526,9.492a1.172,1.172,0,0,1-.554,1.562,1.2,1.2,0,0,1-.5.114" transform="translate(38.212 10.649)" fill="#fff"></path>
            <path id="Path_4211" data-name="Path 4211" d="M41.793,79.147a1.166,1.166,0,0,1-1.115-.813L37.409,68.2c-.085-.295-1.686-6.187.983-11.167.085-.146,4.934-7.962,4.934-12.967V32.853a13.591,13.591,0,0,0-.454-3.45,30.757,30.757,0,0,1-.944-4.568l-.543-12.388a4.845,4.845,0,0,0-1.377-2.978,2.216,2.216,0,0,0-1.782-.351c-.309.028-3.976.351-3.976,8.714L33.9,31.919a5.819,5.819,0,0,1-1.292,3.543c-4.568,5.672-7.621,10.475-8.178,12.846l.032,4.707a1.171,1.171,0,1,1-2.343,0V48.042c.905-4.018,5.818-10.51,8.665-14.049a3.516,3.516,0,0,0,.774-2.13l.348-14.06c0-10.787,5.853-11.007,6.105-11.011a4.323,4.323,0,0,1,3.436.831A7.142,7.142,0,0,1,43.724,12.3l.543,12.392a28.5,28.5,0,0,0,.87,4.114,16.029,16.029,0,0,1,.532,4.05v11.21c0,5.679-5.037,13.8-5.25,14.142-2.179,4.068-.781,9.265-.767,9.318l3.255,10.092a1.176,1.176,0,0,1-.753,1.477,1.2,1.2,0,0,1-.362.057" transform="translate(56.4 17.128)" fill="#fff"></path>
            <path id="Path_4212" data-name="Path 4212" d="M25.373,41.927A1.174,1.174,0,0,1,24.2,40.808l-.22-4.923a7.073,7.073,0,0,0-.98-3.3l-5.527-9.325a1.173,1.173,0,0,1,2.02-1.193l5.523,9.325a9.536,9.536,0,0,1,1.31,4.394l.217,4.92a1.176,1.176,0,0,1-1.118,1.225Z" transform="translate(44.143 54.785)" fill="#fff"></path>
            <path id="Path_4213" data-name="Path 4213" d="M31.334,52.27a2.5,2.5,0,0,1-1.651-.635C27.138,49.363,18.459,41.4,12.851,33.674A30.7,30.7,0,0,1,8.336,25.4a19.706,19.706,0,0,1-.554-3.56c0-6.5,5.548-11.8,12.367-11.8a12.468,12.468,0,0,1,11.2,6.815,12.466,12.466,0,0,1,11.2-6.815c6.819,0,12.363,5.292,12.363,11.8a20.235,20.235,0,0,1-.529,3.482c-2.84,9.222-17.059,22.462-21.351,26.3a2.587,2.587,0,0,1-1.69.65M20.149,12.387c-5.53,0-10.024,4.238-10.024,9.453a17.487,17.487,0,0,0,.472,2.943A28.517,28.517,0,0,0,14.753,32.3c5.466,7.536,13.989,15.356,16.47,17.571C34.433,47.216,49.4,33.5,52.113,24.711a18.079,18.079,0,0,0,.447-2.872c0-5.214-4.5-9.453-10.021-9.453a10.045,10.045,0,0,0-9.449,6.325,9.133,9.133,0,0,0-.579,3.127,1.171,1.171,0,1,1-2.343,0,9.128,9.128,0,0,0-.575-3.134,10.045,10.045,0,0,0-9.446-6.318" transform="translate(19.841 25.607)" fill="#fff"></path>
        </g>
    </g>
</svg>
